X: 3
T: NoMaD 2005 Quadrille Set - Part 3
P: 4x(ABB CDCD)
K:
%
P: Balquidder Lasses
C:Traditional
M:4/4
L:1/8
K:Edor
BA "A"\
| "Em"G2FG  EFGA | B2B2e4 \
| "D"d2A2 ABAF | DEFG A2 BA \
| "Em"G2FG EFGA | B2B2e4 |
| "D"d2A2 "(B7)"BAGF | "Em"E6 |] \
B2 "B1"\
| "Em"e2ef e2B2 | efgf e2 Bc \
| "D"d2 de dAFA | DEFG A2B2 |
| "Em"e2ef e2B2 | efgf e2 Bc \
| "D"d2A2 "(B7)"BAGF | "Em"E6 |] \
B2 "B2"\
| "Em"e2ef e2B2 | efgf e2 Bc |
| "D"d2 de dAFA | DEFG A2BA \
| "Em"G2FG EFGA | B2B2 e4 \
| "D"d2A2 "(B7)"BAGF | "Em"E6 |]
%
P: Father Kelley's Reel (The Rossmore Jetty)
O: Ireland
M: C|
L: 1/8
K: G
GA "C"\
| "G"B2GB "C"AGEG | "D7"DGGF "G"GABd | "Am"c2AB cBAG | "D7"FGAG FDDA |
| "G"B2GB "C"AGEG | "D7"DGGF "G"GABd | "C"cdef "(G)"gedc | "D7"BGAF "G"G2 |]
Bc "D"\
| "G"d2Bd gdBd | d2Bd gdBd | "C(Am)"e2ce agfe | "D7"defg agfe |
| "G"d2Bd gdBd | d2Bd gdBd | "Am"cBAc "G"BAGB | "D7"AGFA "G"G2 :|

